X:3141
T:the Mist Covered Mountains
R:Jig
S:Utlärd av Anton Larsson
Z:Karin Arén
M:6/8
L:1/8
K:Am
|: vEAA ABd | eAA AGE | G3 GAB | dBA GED | EAA ABd |
eAA Bcd | e^fg dBG | BAG A3 :| vage a2 v(b | a)ge edB | 
vAGE G2 v(A | B)AB (GED) | vage a2 v(b | a)ge edB | vAGE G2 v(A | 
B)AG A3 | vage a2 v(b | a)ge edB | vAGE G2 v(A | B)AB (GED) | 
v(3E/^F/E/DE G2 v(A | B)AG ABd | e^fg dBG | BAG A3 |] 
(:musicend:)



(:music:)
